!!!OTL: ZU FRANKFURT VOR DEM THORE
!!!ARE: Europa, Mitteleuropa, Deutschland, Kreis Limburg; Unter - Lahnkreis
!!!SCT: E0213
!!!YEM: Copyright 1995, estate of Helmut Schaffrath.
**kern
*ICvox
*Ivox
*M4/4
*k[f#]
*G:
{4d
=1
4g
4b
4a
4ee
=2
8dd
8cc
4a
4r}
{4dd
=3
4.b
8a
4g
4b
=4
2a
4r}
{8g
8b
=5
4a
8g
8b
4a
4g
=6
8g
8ee
4dd
4r}
{8dd
8cc
=7
8b
8dd
8b
8g
4a
8b
8a
=8
2g
4r}
==
!!!AGN: erzaehlendes Volks - Lied, Mahn -, Moral - Lied, Strafe
!!!ONB: ESAC (Essen Associative Code) Database: ERK1
!!!AMT: simple quadruple
!!!AIN: vox
!!!EED: Helmut Schaffrath
!!!EEV: 1.0
*-
